resources/svg/vector-document.svg

<svg xmlns="http://www.w3.org/2000/svg" viewBox="0 0 15 15" fill="currentColor"><path d="M9 10v1H6v-1H5V7h1V6h3v1h1v3H9zM4 5v1h1V5H4zm6 0v1h1V5h-1zm-6 7v-1h1v1H4zm6-1v1h1v-1h-1z" fill="currentColor"/><path fill-rule="evenodd" clip-rule="evenodd" d="M1 1.5A1.5 1.5 0 012.5 0h8.207L14 3.293V13.5a1.5 1.5 0 01-1.5 1.5h-10A1.5 1.5 0 011 13.5v-12zM3 4h3v1h3V4h3v3h-1v3h1v3H9v-1H6v1H3v-3h1V7H3V4z" fill="currentColor"/></svg>

<svg xmlns="http://www.w3.org/2000/svg" viewBox="0 0 15 15" fill="currentColor"><path d="M9 10V11H6V10H5V7H6V6H9V7H10V10H9Z" fill="black"/><path d="M4 5V6H5V5H4Z" fill="black"/><path d="M10 5V6H11V5H10Z" fill="black"/><path d="M4 12V11H5V12H4Z" fill="black"/><path d="M10 11V12H11V11H10Z" fill="black"/><path fill-rule="evenodd" clip-rule="evenodd" d="M1 1.5C1 0.671573 1.67157 0 2.5 0H10.7071L14 3.29289V13.5C14 14.3284 13.3284 15 12.5 15H2.5C1.67157 15 1 14.3284 1 13.5V1.5ZM3 4H6V5H9V4H12V7H11V10H12V13H9V12H6V13H3V10H4V7H3V4Z" fill="black"/></svg>
